!!!COM: Palestrina, Giovanni Perluigi da
!!!OPR: Missa In minoribus duplicibus
!!!OMD: Sanctus
!!!OTL: Pleni
**kern	**kern	**kern	**kern
*Ibass	*Itenor	*Icalto	*Icant
!Bassus	!Tenor	!Altus	!Cantus
*clefF4	*clefGv2	*clefG2	*clefG2
*k[]	*k[]	*k[]	*k[]
*?:X	*?:X	*?:X	*?:X
*M3/2	*M3/2	*M3/2	*M3/2
=42	=42	=42	=42
1r	1r	2f	1r
.	.	2a	.
2r	2r	2b-	2r
=43	=43	=43	=43
1r	1r	2.cc	2cc
.	.	.	2ee
.	.	4b-	.
2r	2r	2a	2ff
=44	=44	=44	=44
1r	1r	4g	1gg
.	.	4a	.
.	.	4b-	.
.	.	4g	.
2r	2r	4a	2ff
.	.	4b-	.
=45	=45	=45	=45
1r	1r	1cc	2ee
.	.	.	2.gg
2r	2r	2b-	.
.	.	.	4ff
=46	=46	=46	=46
1r	1r	2a	1ff
.	.	1g	.
2r	2r	.	2ee
=47	=47	=47	=47
2F	1r	2.a	2ff
2A	.	.	2cc
.	.	4g	.
2B-	2r	2f	2dd
=48	=48	=48	=48
2.c	2c	2.e	1g
.	2e	.	.
4B-	.	4d	.
2A	2f	2c	2r
=49	=49	=49	=49
4G	1g	1d	1r
4A	.	.	.
4B-	.	.	.
4G	.	.	.
4A	2f	2c	2r
4B-	.	.	.
=50	=50	=50	=50
1c	2e	1r	1r
.	2.g	.	.
2B-	.	2r	2r
.	4f	.	.
=51	=51	=51	=51
2A	1f	1r	1r
1G	.	.	.
.	2e	2r	2r
=52	=52	=52	=52
2F	2f	2.a	2r
2.c	2r	.	2.ee
.	.	8g	.
.	.	8f	.
.	2r	4g	.
8B-	.	4a	8dd
8A	.	.	8cc
=53	=53	=53	=53
2G	1r	1b-	4dd
.	.	.	4ee
2D	.	.	1ff
2F	2r	2a	.
=54	=54	=54	=54
2C	1r	2g	2ee
2.G	.	2.b-	2.dd
.	2r	.	.
4A	.	4a	4cc
=55	=55	=55	=55
4B-	1r	1g	2b-
4c	.	.	.
1d	.	.	1a
.	2r	2f#	.
=56	=56	=56	=56
2G	2r	1g	1g
2.c	2.e	.	.
.	.	2r	2r
8B-	8d	.	.
8A	8c	.	.
=57	=57	=57	=57
2G	4d	2r	2.b-
.	4e	.	.
4D	1f	2d	.
4E	.	.	8a
.	.	.	8g
4F	.	2d	4a
4G	.	.	4b-
=58	=58	=58	=58
2A	2e	2c	2cc
2B-	2.d	1f	2b-
2F	.	.	2a
.	4c	.	.
=59	=59	=59	=59
2G	2B-	[1.d	1g
1D	1A	.	.
.	.	.	2f#
=60	=60	=60	=60
1G	1G	1.d]	1g
2r	2r	.	2r
=61	=61	=61	=61
2.G	1r	2.g	2.b-
4A	.	4f	4cc
2B-	2r	2d	2dd
=62	=62	=62	=62
2A	1r	2e	2.cc
2F	.	2f	.
.	.	.	4a
2G	2r	2d	2b
=63	=63	=63	=63
2.c	2.e	2c	1cc
.	.	2g	.
8B	4f	.	.
8A	.	.	.
2G	2g	2b-	2r
=64	=64	=64	=64
2A	2.f	2a	1r
2B-	.	2f	.
.	4d	.	.
2G	2e	2g	2r
=65	=65	=65	=65
2F	2f	2a	2cc
2r	2c	2cc	2ee
2r	2d	2a	2ff
=66	=66	=66	=66
1r	2G	2b-	2.gg
.	2r	2.cc	.
.	.	.	4ff
2r	2r	.	4ee
.	.	4b-	4dd
=67	=67	=67	=67
2F	1r	4a	1cc
.	.	4g	.
2A	.	4f	.
.	.	4e	.
2B-	2r	2d	2dd
=68	=68	=68	=68
2.c	1r	2.e	2g
.	.	.	2.cc
4B-	.	4d	.
2A	2r	4e	.
.	.	4f	4a
=69	=69	=69	=69
2G	1r	1g	2b-
1d	.	.	1a
.	2r	2f#	.
=70	=70	=70	=70
2r	2c	1g	2g
2c	2e	.	2gg
2A	2f	2r	2ff
=71	=71	=71	=71
2B-	2.g	1r	2dd
2.c	.	.	2ee
.	4f	.	.
.	4e	2r	2cc
4B-	4d	.	.
=72	=72	=72	=72
4A	1c	2cc	2ee
4G	.	.	.
4F	.	2a	1ff
4E	.	.	.
2D	2d	2b-	.
=73	=73	=73	=73
2C	2G	2.cc	1ee
2E	2.c	.	.
.	.	4b-	.
2F	.	2a	2r
.	4A	.	.
=74	=74	=74	=74
2.G	2B-	2g	1r
.	1A	1a	.
8F#	.	.	.
8E	.	.	.
2F#	.	.	2r
=75	=75	=75	=75
1G	1G	2b-	1dd
.	.	2g	.
2r	2r	2a	2cc
=76	=76	=76	=76
1G	1d	1b-	1dd
2c	2c	2cc	2ee-
=77	=77	=77	=77
4B-	1d	2f	4dd
4A	.	.	4cc
4G	.	1g	4b-
4F	.	.	4a
2E-	[2e-	.	2g
=78	=78	=78	=78
2C	2e-]	[1.g	1cc
1G	1d	.	.
.	.	.	2b
=79	=79	=79	=79
1.C	1.c	1.g]	1.cc
==	==	==	==
*-	*-	*-	*-
!!!CDT: 1525/^1526/-1594/2/2
!!!OCY: Italia
!!!AGN: Mass (Paraphrase)
!!!AST: renaissance, vocal
!!!ASW: Gregorian Mass
!!!PWK: Masses, Book 7
!!!RNB: Cadence finals: C,G,A,D
!!!YOR: Le Opere Complete, v. 23, p. 182
!!!YOO: Rome, Italy: Fratelli Scalera
!!!END: 1992//
!!!EED: John Miller
!!!YEC: Copyright 2000, John Miller
!!!YEN: United States of America
!!!YEM: Rights to all derivative electronic formats reserved.
!!!YEM: Refer to licensing agreement for further details.
!!!YEM: This file must be accompanied by the licensing agreement.
!!!YEM: A copy of the licensing agreement may be found at http://www.music-cog.ohio-state.edu/HumdrumDatabases/Palestrina/license.txt
!!!EMD: converted to Humdrum by Bret Aarden
